Papirus/48x48/apps/foobnix.svg

<?xml version="1.0" encoding="UTF-8" standalone="no"?>
<svg xmlns="http://www.w3.org/2000/svg" height="48" width="48" version="1">
 <rect ry="2" rx="2" transform="matrix(0,-1,-1,0,0,0)" height="40" width="40" y="-44.2" x="-44.2" fill="#39668e"/>
 <path opacity=".2" fill="#fff" d="m6 4c-1.108 0-2 0.892-2 2v1c0-1.108 0.892-2 2-2h36c1.108 0 2 0.892 2 2v-1c0-1.108-0.892-2-2-2h-36z"/>
 <path opacity=".2" d="m6 45c-1.108 0-2-0.892-2-2v-1c0 1.108 0.892 2 2 2h36c1.108 0 2-0.892 2-2v1c0 1.108-0.892 2-2 2h-36z"/>
 <path opacity=".2" d="m9.5996 9c-0.8864 0-1.5996 0.7132-1.5996 1.6v28.8c0 0.887 0.7132 1.6 1.5996 1.6h28.8c0.887 0 1.6-0.713 1.6-1.6v-28.8c0-0.8868-0.713-1.6-1.6-1.6h-28.8zm7.4004 7l8 4.5 8 4.5-8 4.5-8 4.5v-18z"/>
 <path fill="#7ca0ff" d="m9.5996 8c-0.8864 0-1.5996 0.7132-1.5996 1.5996v28.8c0 0.887 0.7132 1.6 1.5996 1.6h28.8c0.887 0 1.6-0.713 1.6-1.6v-28.8c0-0.8868-0.713-1.6-1.6-1.6h-28.8zm7.4004 7l8 4.5 8 4.5-8 4.5-8 4.5v-18z"/>
</svg>

<?xml version="1.0" encoding="UTF-8" standalone="no"?>
<svg xmlns="http://www.w3.org/2000/svg" height="48" width="48" version="1">
 <rect style="fill:#39668e" ry="2" rx="2" transform="matrix(0,-1,-1,0,0,0)" height="40" width="40" y="-44.2" x="-44.2"/>
 <path style="opacity:0.1;fill:#ffffff" d="M 6,4 C 4.892,4 4,4.892 4,6 L 4,7 C 4,5.892 4.892,5 6,5 l 36,0 c 1.108,0 2,0.892 2,2 L 44,6 C 44,4.892 43.108,4 42,4 L 6,4 Z"/>
 <path style="opacity:0.2" d="M 6,45 C 4.892,45 4,44.108 4,43 l 0,-1 c 0,1.108 0.892,2 2,2 l 36,0 c 1.108,0 2,-0.892 2,-2 l 0,1 c 0,1.108 -0.892,2 -2,2 L 6,45 Z"/>
 <path style="opacity:0.2" d="M 9.5996,9 C 8.7132,9 8,9.7132 8,10.6 L 8,39.4 C 8,40.287 8.7132,41 9.5996,41 l 28.8,0 c 0.887,0 1.6,-0.713 1.6,-1.6 l 0,-28.8 c 0,-0.8868 -0.713,-1.6 -1.6,-1.6 l -28.8,0 z M 17,16 l 8,4.5 8,4.5 -8,4.5 -8,4.5 0,-18 z"/>
 <path d="M 9.5996,8 C 8.7132,8 8,8.7132 8,9.5996 l 0,28.8 c 0,0.887 0.7132,1.6 1.5996,1.6 l 28.8,0 c 0.887,0 1.6,-0.713 1.6,-1.6 l 0,-28.8 c 0,-0.8868 -0.713,-1.6 -1.6,-1.6 l -28.8,0 z" style="fill:#7ca0ff;fill-opacity:1"/>
 <path style="opacity:0.2;fill:#000000;fill-opacity:1" d="m 17,16 8,4.5 8,4.5 -8,4.5 -8,4.5 0,-18 z"/>
 <path d="m 17,15 8,4.5 8,4.5 -8,4.5 -8,4.5 0,-18 z" style="fill:#ffffff;fill-opacity:1"/>
</svg>
